X:1
T:O Lamm Gottes, 77.77.777
T:O Lamm Gottes, 77.77.777
T:Nikolaus Decius, 1541
T:Public Domain Courtesy of the Cyber Hymnal™
C:Nikolaus Decius, 1541
Z:Public Domain
Z:Courtesy of the Cyber Hymnal™
%%score ( 1 2 ) ( 3 4 )
L:1/8
Q:1/4=110
M:4/4
K:F
V:1 treble 
V:2 treble 
V:3 bass 
V:4 bass 
V:1
 [CF]2 | [FA]2 [FB]2 [Gc]2 [Fc]2 | [Fd]4 [Fc]2 [Cc]2 | [DF]2 [EG]2 [FA]2 [EB]2 | G4 [CF]2 [CF]2 | %5
 [FA]2 [FB]2 [Gc]2 [Fc]2 | [Fd]4 [Fc]2 [Cc]2 | [CF]2 [EG]2 [FA]2 [FB]2 | G4 [CF]2 [FA]2 | %9
 [FA]2 [EA]2 [DG]2 [EA]2 | [DF]2 [=B,D]2 C2 [Cc]2 | [Fc]2 [EB]2 [FA]2 [Fd]2 | %12
 [Ac]2 [GB]2 [EA]2 [Dd]2 | [Gc]2 [FA]2 [FB]2 [FA]2 | G4 [CF]2 |] %15
V:2
 x2 | x8 | x8 | x8 | F2 E2 x4 | x8 | x8 | x8 | F2 E2 x4 | x8 | x4 C2 x2 | x8 | x8 | x8 | %14
 F2 E2 x2 |] %15
V:3
 [A,C]2 | [F,C]2 [D,D]2 [E,C]2 [F,A,]2 | [B,,B,]4 [F,A,]2 [E,G,]2 | [D,A,]2 [C,C]2 [F,C]2 [D,B,]2 | %4
 [B,,D]2 [C,C]2 [F,A,]2 [A,C]2 | [F,C]2 [D,D]2 [E,C]2 [F,A,]2 | [B,,B,]4 [F,A,]2 [E,G,]2 | %7
 [D,A,]2 [C,C]2 [F,C]2 [D,B,]2 | [B,,D]2 [C,C]2 [F,A,]2 [F,,C]2 | %9
 [D,D]2 [A,,^C]2 [=B,,D]2 [^C,A,]2 | [D,A,]2 G,2 [C,E,]2 [E,G,]2 | [F,A,]2 [G,B,]2 [D,D]2 [B,,D]2 | %12
 [F,F]2 [G,D]2 [A,^C]2 [F,A,]2 | [E,G,]2 [F,C]2 [B,,D]2 [F,,C]2 | [B,,D]2 [C,C]2 [F,A,]2 |] %15
V:4
 x2 | x8 | x8 | x8 | x8 | x8 | x8 | x8 | x8 | x8 | x2 G,2 x4 | x8 | x8 | x8 | x6 |] %15

